X:1
T:Waltz Facile 
T:Charles James Dorn (1839 - 1909)
T:Guitar Album, Op.27
%%score { ( 1 2 ) ( 3 4 ) }
L:1/8
Q:1/4=132
M:3/4
K:E
V:1 treble-8 nm="Guitare classique"
V:2 treble-8 
V:3 tab stafflines=6 strings=E2,A2,D3,G3,B3,E4 nostems nm="Guitare classique [Tablature]"
V:4 tab stafflines=6 strings=E2,A2,D3,G3,B3,E4 nostems 
V:1
"^ ≃ 132""_" B2 | GBeB g2 | GBeB g2 |x!3!AB!4!fAB |!<(! GBe!1!g !4!b2!<)! | GBeB g2 | GBeB g2 | %7
xABfAB | [GBe]4 ::[K:A] e2 | !>!deBede | !>!ceAece | !>!deBede |!<(! ce a3!<)! e | !>!deBede | %15
 !>!ceAece | !>!deBeGe | A4 :|[K:D] A2 | de f2 g2 | ^g2 a2 f2 | aa e2 !1!=f2 | !2!^ff !3!d2 A2 | %23
 de f2 g2 | ^g2 a2 f2 | a=g e2 c2 | d4 || A2 | de f2 g2 | ^g2 a2 f2 | aa e2 =f2 | ^ff d2 A2 | %32
 de f2 g2 | ^g2 a2 f2 | a=g e2 c2 | d4 ||[K:A] e2 | !>!deBede | !>!ceAece | !>!deBede | %40
!<(! ce a3!<)! e | !>!deBede | !>!ceAece | !>!deBeGe | A4 ||[K:E] B2 | GBeB g2 | GBeB g2 |xABfAB | %49
!<(! GBeg b2!<)! | GBeB g2 | GBeB g2 |xABfAB | [GBe]4 |] %54
V:2
 z2 | E,6 | E,6 | !2!B,6 | E,6 | E,6 | E,6 | B,6 | E,4 ::[K:A] z2 | E,6 | A,6 | E,6 | A,6 | E,6 | %15
 A,6 | E,6 | A,4 :|[K:D] z2 | D6 | D6 | A,6 | D6 | D6 | D6 | A,6 | D4 || z2 | D6 | D6 | A,6 | D6 | %32
 D6 | D6 | A,6 | D4 ||[K:A] z2 | E,6 | A,6 | E,6 | A,6 | E,6 | A,6 | E,6 | A,4 ||[K:E] z2 | E,6 | %47
 E,6 | B,6 | E,6 | E,6 | E,6 | B,6 | E,4 |] %54
V:3
 !2!B,2 | !3!G, !2!B, !1!E !2!B, !1!G2 | !3!G, !2!B, !1!E !2!B, !1!G2 | %3
 !6!x !3!A, !2!B, !1!F !3!A, !2!B, | !3!G, !2!B, !1!E !1!G !1!B2 | !3!G, !2!B, !1!E !2!B, !1!G2 | %6
 !3!G, !2!B, !1!E !2!B, !1!G2 | !6!x !3!A, !2!B, !1!F !3!A, !2!B, | [!3!G,!2!B,!1!E]4 :: %9
[K:A] !1!E2 | !2!D !1!E !3!B, !1!E !2!D !1!E | !2!C !1!E !3!A, !1!E !2!C !1!E | %12
 !2!D !1!E !3!B, !1!E !2!D !1!E | !2!C !1!E !1!A3 !1!E | !2!D !1!E !3!B, !1!E !2!D !1!E | %15
 !2!C !1!E !3!A, !1!E !2!C !1!E | !2!D !1!E !2!B, !1!E !3!G, !1!E | !3!A,4 :|[K:D] !3!A,2 | %19
 !2!D !1!E !1!F2 !1!G2 | !1!^G2 !1!A2 !1!F2 | !1!A !1!A !1!E2 !1!=F2 | !1!^F !1!F !2!D2 !3!A,2 | %23
 !2!D !1!E !1!F2 !1!G2 | !1!^G2 !1!A2 !1!F2 | !1!A !1!=G !1!E2 !2!C2 | !2!D4 || !3!A,2 | %28
 !2!D !1!E !1!F2 !1!G2 | !1!^G2 !1!A2 !1!F2 | !1!A !1!A !1!E2 !1!=F2 | !1!^F !1!F !2!D2 !3!A,2 | %32
 !2!D !1!E !1!F2 !1!G2 | !1!^G2 !1!A2 !1!F2 | !1!A !1!=G !1!E2 !2!C2 | !2!D4 ||[K:A] !1!E2 | %37
 !2!D !1!E !3!B, !1!E !2!D !1!E | !2!C !1!E !3!A, !1!E !2!C !1!E | !2!D !1!E !3!B, !1!E !2!D !1!E | %40
 !2!C !1!E !1!A3 !1!E | !2!D !1!E !3!B, !1!E !2!D !1!E | !2!C !1!E !3!A, !1!E !2!C !1!E | %43
 !2!D !1!E !2!B, !1!E !3!G, !1!E | !3!A,4 ||[K:E] !2!B,2 | !3!G, !2!B, !1!E !2!B, !1!G2 | %47
 !3!G, !2!B, !1!E !2!B, !1!G2 | !6!x !3!A, !2!B, !1!F !3!A, !2!B, | !3!G, !2!B, !1!E !1!G !1!B2 | %50
 !3!G, !2!B, !1!E !2!B, !1!G2 | !3!G, !2!B, !1!E !2!B, !1!G2 | !6!x !3!A, !2!B, !1!F !3!A, !2!B, | %53
 [!3!G,!2!B,!1!E]4 |] %54
V:4
 x2 | !6!E,,6 | !6!E,,6 | !5!B,,6 | !6!E,,6 | !6!E,,6 | !6!E,,6 | !5!B,,6 | !6!E,,4 ::[K:A] x2 | %10
 !6!E,,6 | !5!A,,6 | !6!E,,6 | !5!A,,6 | !6!E,,6 | !5!A,,6 | !6!E,,6 | !5!A,,4 :|[K:D] x2 | %19
 !4!D,6 | !4!D,6 | !5!A,,6 | !4!D,6 | !4!D,6 | !4!D,6 | !5!A,,6 | !4!D,4 || x2 | !4!D,6 | !4!D,6 | %30
 !5!A,,6 | !4!D,6 | !4!D,6 | !4!D,6 | !5!A,,6 | !4!D,4 ||[K:A] x2 | !6!E,,6 | !5!A,,6 | !6!E,,6 | %40
 !5!A,,6 | !6!E,,6 | !5!A,,6 | !6!E,,6 | !5!A,,4 ||[K:E] x2 | !6!E,,6 | !6!E,,6 | !5!B,,6 | %49
 !6!E,,6 | !6!E,,6 | !6!E,,6 | !5!B,,6 | !6!E,,4 |] %54

